X: 19205
T: Islay Rant
R: reel
M: 4/4
K: Amixolydian
|:cA (3AAA cAdA|eA (3AAA eAfA|(g2 g)f gedB|GABG =cGBG|
cA (3AAA cAdA|eA (3AAA eAfA|(g2 g)f gedB|1 GABG A4:|2 GABG A2 e2||
|:(a2 a)b aged|eA (3AAA eAfA|(g2 g)f gedB|GABG =cGBG|
cA (3AAA cAdA|eA (3AAA eAfA|(g2 g)f gedB|1 GABG A2 e2:|2 GABG A4||

